X:430
T:The 10 Fiddle
B:The Scottish Violinist (n.d.)
C:James Scott Skinner
Z:Nigel Gatherer
M:4/4
L:1/8
K:A
E | A2    ED CEAf | eAfA GBBG | A2    EC DFBA | GBeg aAAE |
    A/A/A ED CEAf | eAfA GBBG | A/A/A EC DFBA | GBeg aAA ||
g | a/a/a ea caAg | aece fBBg | a/a/a ec f/f/f dB | GBeg aAAa |
    gaea     caAa | caAa fBBc | A2    EC DFBA     | GBeg aAA |]
